packages/dnb-ui-lib/assets/icons/hand_money_medium.svg

<svg width="25" height="24" viewBox="0 0 25 24" fill="none" xmlns="http://www.w3.org/2000/svg">
<path d="M0.826349 11.2539C0.414277 11.2118 0.0461262 11.5118 0.00406069 11.9238C-0.0380048 12.3359 0.261945 12.7041 0.674017 12.7461L0.826349 11.2539ZM6.06054 12.5421L6.13816 11.7961L6.13671 11.796L6.06054 12.5421ZM7.64928 13.2001L8.12097 12.617L8.11919 12.6155L7.64928 13.2001ZM11.8594 16.6058L11.3878 17.1889C11.3918 17.1922 11.396 17.1954 11.4001 17.1987L11.8594 16.6058ZM12.7452 18.3231L11.9962 18.3625C11.9966 18.3695 11.997 18.3765 11.9976 18.3834L12.7452 18.3231ZM11.8912 19.8045L11.5852 19.1198L11.5795 19.1224L11.8912 19.8045ZM9.76628 19.6142L10.1921 18.9968C10.187 18.9933 10.1818 18.9898 10.1766 18.9864L9.76628 19.6142ZM7.44796 17.2029C7.10124 16.9762 6.63646 17.0736 6.40983 17.4203C6.1832 17.767 6.28056 18.2318 6.62728 18.4584L7.44796 17.2029ZM12.5438 18.7132C12.1296 18.7132 11.7938 19.049 11.7938 19.4632C11.7938 19.8774 12.1296 20.2132 12.5438 20.2132V18.7132ZM19.7843 19.4632V20.2133L19.7945 20.2132L19.7843 19.4632ZM22.3276 21.6111L22.4142 22.3561C22.7924 22.3122 23.0776 21.9918 23.0776 21.6111H22.3276ZM10.4263 22.9932L10.475 23.7416C10.4876 23.7408 10.5002 23.7397 10.5128 23.7382L10.4263 22.9932ZM8.91143 22.7193L9.22271 22.037L9.22246 22.0369L8.91143 22.7193ZM1.06121 18.3175C0.684288 18.1458 0.239487 18.3121 0.0677134 18.689C-0.10406 19.0659 0.0622427 19.5107 0.43916 19.6825L1.06121 18.3175ZM10.7747 10.75V11.5V10.75ZM10.7747 3.75V4.5V3.75ZM17.2747 15.25V16V15.25ZM17.2747 8.25V9V8.25ZM0.674017 12.7461L5.98438 13.2882L6.13671 11.796L0.826349 11.2539L0.674017 12.7461ZM5.98293 13.2881C6.41526 13.3331 6.82997 13.5037 7.17938 13.7846L8.11919 12.6155C7.54845 12.1567 6.86229 11.8715 6.13816 11.7961L5.98293 13.2881ZM7.1776 13.7832L11.3878 17.1889L12.3311 16.0227L8.12097 12.617L7.1776 13.7832ZM11.4001 17.1987C11.7479 17.4681 11.9715 17.8927 11.9962 18.3625L13.4941 18.2837C13.4472 17.3913 13.0217 16.5574 12.3188 16.0129L11.4001 17.1987ZM11.9976 18.3834C12.0244 18.7153 11.8427 19.0047 11.5852 19.1198L12.1973 20.4893C13.0619 20.1028 13.5683 19.1986 13.4927 18.2628L11.9976 18.3834ZM11.5795 19.1224C11.1281 19.3286 10.6077 19.2835 10.1921 18.9968L9.34042 20.2316C10.1874 20.8158 11.2676 20.914 12.2029 20.4867L11.5795 19.1224ZM10.1766 18.9864L7.44796 17.2029L6.62728 18.4584L9.35594 20.242L10.1766 18.9864ZM12.5438 20.2132H19.7843V18.7132H12.5438V20.2132ZM19.7945 20.2132C20.1455 20.2083 20.6295 20.3133 21.0023 20.5564C21.344 20.7792 21.5776 21.1001 21.5776 21.6111H23.0776C23.0776 20.511 22.5142 19.7515 21.8215 19.2999C21.1599 18.8685 20.3723 18.7051 19.774 18.7133L19.7945 20.2132ZM22.3276 21.6111C22.2411 20.8661 22.2411 20.8661 22.2411 20.8661C22.241 20.8661 22.241 20.8661 22.2409 20.8661C22.2408 20.8661 22.2406 20.8661 22.2404 20.8662C22.2399 20.8662 22.2392 20.8663 22.2382 20.8664C22.2363 20.8667 22.2334 20.867 22.2295 20.8674C22.2217 20.8683 22.2101 20.8697 22.1946 20.8715C22.1636 20.8751 22.1171 20.8805 22.0552 20.8877C21.9312 20.9021 21.7452 20.9237 21.4973 20.9525C21.0014 21.0101 20.2576 21.0964 19.2658 21.2116C17.2822 21.442 14.3069 21.7875 10.3398 22.2482L10.5128 23.7382C14.4799 23.2775 17.4553 22.932 19.4388 22.7016C20.4306 22.5864 21.1744 22.5 21.6703 22.4425C21.9183 22.4137 22.1042 22.3921 22.2282 22.3777C22.2902 22.3705 22.3367 22.3651 22.3677 22.3615C22.3832 22.3597 22.3948 22.3583 22.4025 22.3574C22.4064 22.357 22.4093 22.3566 22.4112 22.3564C22.4122 22.3563 22.4129 22.3562 22.4134 22.3562C22.4137 22.3561 22.4138 22.3561 22.414 22.3561C22.414 22.3561 22.4141 22.3561 22.4141 22.3561C22.4141 22.3561 22.4142 22.3561 22.3276 21.6111ZM10.3776 22.2448C9.97496 22.271 9.57497 22.1977 9.22271 22.037L8.60015 23.4017C9.18272 23.6674 9.83061 23.7836 10.475 23.7416L10.3776 22.2448ZM9.22246 22.0369L1.06121 18.3175L0.43916 19.6825L8.60041 23.4018L9.22246 22.0369ZM12.0247 7.25C12.0247 8.11016 11.8238 8.85201 11.5377 9.35277C11.2394 9.87474 10.9416 10 10.7747 10V11.5C11.7122 11.5 12.4145 10.8418 12.8401 10.097C13.2778 9.33098 13.5247 8.32284 13.5247 7.25H12.0247ZM10.7747 10C10.6077 10 10.3099 9.87474 10.0116 9.35277C9.72548 8.85201 9.52466 8.11016 9.52466 7.25H8.02466C8.02466 8.32284 8.27155 9.33098 8.70926 10.097C9.13485 10.8418 9.83708 11.5 10.7747 11.5V10ZM9.52466 7.25C9.52466 6.38984 9.72548 5.64799 10.0116 5.14723C10.3099 4.62526 10.6077 4.5 10.7747 4.5V3C9.83708 3 9.13485 3.65825 8.70926 4.40302C8.27155 5.16902 8.02466 6.17716 8.02466 7.25H9.52466ZM10.7747 4.5C10.9416 4.5 11.2394 4.62526 11.5377 5.14723C11.8238 5.64799 12.0247 6.38984 12.0247 7.25H13.5247C13.5247 6.17716 13.2778 5.16902 12.8401 4.40302C12.4145 3.65825 11.7122 3 10.7747 3V4.5ZM18.5247 11.75C18.5247 12.6102 18.3238 13.352 18.0377 13.8528C17.7394 14.3747 17.4416 14.5 17.2747 14.5V16C18.2122 16 18.9145 15.3418 19.3401 14.597C19.7778 13.831 20.0247 12.8228 20.0247 11.75H18.5247ZM17.2747 14.5C17.1077 14.5 16.8099 14.3747 16.5116 13.8528C16.2255 13.352 16.0247 12.6102 16.0247 11.75H14.5247C14.5247 12.8228 14.7716 13.831 15.2093 14.597C15.6348 15.3418 16.3371 16 17.2747 16V14.5ZM16.0247 11.75C16.0247 10.8898 16.2255 10.148 16.5116 9.64723C16.8099 9.12526 17.1077 9 17.2747 9V7.5C16.3371 7.5 15.6348 8.15825 15.2093 8.90302C14.7716 9.66902 14.5247 10.6772 14.5247 11.75H16.0247ZM17.2747 9C17.4416 9 17.7394 9.12526 18.0377 9.64723C18.3238 10.148 18.5247 10.8898 18.5247 11.75H20.0247C20.0247 10.6772 19.7778 9.66902 19.3401 8.90302C18.9145 8.15825 18.2122 7.5 17.2747 7.5V9Z" fill="black"/>
</svg>

<svg width="24" height="24" viewBox="0 0 25 24" fill="none" xmlns="http://www.w3.org/2000/svg"><path d="M.826 11.254a.75.75 0 10-.152 1.492l.152-1.492zm5.235 1.288l.077-.746h-.001l-.076.746zm1.588.658l.472-.583-.002-.002-.47.585zm4.21 3.406l-.471.583.012.01.46-.593zm.886 1.717l-.749.04.002.02.747-.06zm-.854 1.482l-.306-.685-.006.002.312.683zm-2.125-.19l.426-.618a.837.837 0 00-.015-.01l-.41.627zm-2.318-2.412a.75.75 0 10-.82 1.255l.82-1.255zm5.096 1.51a.75.75 0 000 1.5v-1.5zm7.24.75v.75h.01l-.01-.75zm2.544 2.148l.086.745a.75.75 0 00.664-.745h-.75zm-11.902 1.382l.049.749a.689.689 0 00.038-.004l-.087-.745zm-1.515-.274l.312-.682-.312.682zm-7.85-4.402a.75.75 0 00-.622 1.366l.622-1.366zm9.714-7.567v.75-.75zm0-7v.75-.75zm6.5 11.5V16v-.75zm0-7V9v-.75zM.674 12.746l5.31.542.153-1.492-5.31-.542-.153 1.492zm5.309.542c.432.045.847.216 1.196.497l.94-1.17a3.788 3.788 0 00-1.98-.819l-.156 1.492zm1.195.495l4.21 3.406.943-1.166-4.21-3.406-.943 1.166zM11.4 17.2c.348.27.572.694.596 1.163l1.498-.078a3.074 3.074 0 00-1.175-2.271L11.4 17.2zm.598 1.184a.736.736 0 01-.413.737l.612 1.37c.865-.387 1.371-1.291 1.296-2.227l-1.495.12zm-.418.74a1.402 1.402 0 01-1.388-.126l-.852 1.235a2.902 2.902 0 002.863.255l-.623-1.365zm-1.403-.137l-2.729-1.783-.82 1.255 2.728 1.784.82-1.256zm2.367 1.227h7.24v-1.5h-7.24v1.5zm7.25 0c.351-.005.835.1 1.208.343.342.223.576.544.576 1.055h1.5c0-1.1-.564-1.86-1.256-2.311a3.793 3.793 0 00-2.048-.587l.02 1.5zm2.534 1.398l-.087-.745h-.003l-.008.001-.035.005-.14.016-.558.064-2.231.26-8.926 1.036.173 1.49 8.926-1.036 2.231-.26.558-.064.14-.017.035-.004h.011l-.086-.746zm-11.95.634a2.416 2.416 0 01-1.155-.208L8.6 23.402c.583.265 1.23.382 1.875.34l-.097-1.497zm-1.156-.208l-8.16-3.72-.623 1.366L8.6 23.402l.622-1.365zM12.025 7.25c0 .86-.201 1.602-.487 2.103-.299.522-.596.647-.763.647v1.5c.937 0 1.64-.658 2.065-1.403.438-.766.685-1.774.685-2.847h-1.5zM10.775 10c-.167 0-.465-.125-.763-.647-.287-.501-.487-1.243-.487-2.103h-1.5c0 1.073.247 2.081.684 2.847.426.745 1.128 1.403 2.066 1.403V10zm-1.25-2.75c0-.86.2-1.602.487-2.103.298-.522.596-.647.763-.647V3c-.938 0-1.64.658-2.066 1.403-.437.766-.684 1.774-.684 2.847h1.5zm1.25-2.75c.167 0 .464.125.763.647.286.501.487 1.243.487 2.103h1.5c0-1.073-.247-2.081-.685-2.847C12.415 3.658 11.712 3 10.775 3v1.5zm7.75 7.25c0 .86-.201 1.602-.487 2.103-.299.522-.596.647-.763.647V16c.937 0 1.64-.658 2.065-1.403.438-.766.685-1.774.685-2.847h-1.5zm-1.25 2.75c-.167 0-.465-.125-.763-.647-.287-.501-.487-1.243-.487-2.103h-1.5c0 1.073.247 2.081.684 2.847.426.745 1.128 1.403 2.066 1.403v-1.5zm-1.25-2.75c0-.86.2-1.602.487-2.103.298-.522.596-.647.763-.647V7.5c-.938 0-1.64.658-2.066 1.403-.437.766-.684 1.774-.684 2.847h1.5zM17.275 9c.167 0 .464.125.763.647.286.501.487 1.243.487 2.103h1.5c0-1.073-.247-2.081-.685-2.847-.425-.745-1.128-1.403-2.065-1.403V9z" fill="#000"/></svg>
